usr/share/icons/biglinux-icons-material/16/devices/network-rj45-female.svg

<svg width="16" height="16" version="1.1" xmlns="http://www.w3.org/2000/svg">
 <style id="current-color-scheme" type="text/css">.ColorScheme-Text {
            color:#dedede;
        }</style>
 <path style="fill:currentColor" class="ColorScheme-Text" d="m2 2c-1.108 0-2 0.892-2 2v8c0 1.108 0.892 2 2 2h12c1.108 0 2-0.892 2-2v-8c0-1.108-0.892-2-2-2zm-1 2 1-1v2h1v-2h1v2h1v-2h1v2h1v-2h2v2h1v-2h1v2h1v-2h1v2h1v-2l1 1v6h-3v1h-2v2h-4v-2h-2v-1h-3z"/>
</svg>

<svg xmlns="http://www.w3.org/2000/svg" width="16" height="16"><path d="M2 2C.892 2 0 2.892 0 4v8c0 1.108.892 2 2 2h12c1.108 0 2-.892 2-2V4c0-1.108-.892-2-2-2zM1 4l1-1v2h1V3h1v2h1V3h1v2h1V3h2v2h1V3h1v2h1V3h1v2h1V3l1 1v6h-3v1h-2v2H6v-2H4v-1H1z" style="fill:currentColor;color:#dedede"/></svg>
